src/assets/img/svg/burger-menu-icons/users.svg

<svg width="22" height="14" fill="none" xmlns="http://www.w3.org/2000/svg"><path d="M15 6c1.66 0 2.99-1.34 2.99-3S16.66 0 15 0c-1.66 0-3 1.34-3 3s1.34 3 3 3zM7 6c1.66 0 2.99-1.34 2.99-3S8.66 0 7 0C5.34 0 4 1.34 4 3s1.34 3 3 3zm0 2c-2.33 0-7 1.17-7 3.5V13c0 .55.45 1 1 1h12c.55 0 1-.45 1-1v-1.5C14 9.17 9.33 8 7 8zm8 0c-.29 0-.62.02-.97.05.02.01.03.03.04.04 1.14.83 1.93 1.94 1.93 3.41V13c0 .35-.07.69-.18 1H21c.55 0 1-.45 1-1v-1.5C22 9.17 17.33 8 15 8z" fill="#D0CFCF"/></svg>

<svg width="22" height="14" viewBox="0 0 22 14" fill="none" xmlns="http://www.w3.org/2000/svg">
    <path
            d="M15 6C16.66 6 17.99 4.66 17.99 3C17.99 1.34 16.66 0 15 0C13.34 0 12 1.34 12 3C12 4.66 13.34 6 15 6ZM7 6C8.66 6 9.99 4.66 9.99 3C9.99 1.34 8.66 0 7 0C5.34 0 4 1.34 4 3C4 4.66 5.34 6 7 6ZM7 8C4.67 8 0 9.17 0 11.5V13C0 13.55 0.45 14 1 14H13C13.55 14 14 13.55 14 13V11.5C14 9.17 9.33 8 7 8ZM15 8C14.71 8 14.38 8.02 14.03 8.05C14.05 8.06 14.06 8.08 14.07 8.09C15.21 8.92 16 10.03 16 11.5V13C16 13.35 15.93 13.69 15.82 14H21C21.55 14 22 13.55 22 13V11.5C22 9.17 17.33 8 15 8Z"
            fill="#D0CFCF"/>
</svg>
